X: 4088
T: FAREWELL TO BUTE
R: Strathspey.
%R: strathspey
B: James Kerr "Merry Melodies" v.4 p.12 #88
Z: 2016 John Chambers <jc:trillian.mit.edu>
N: Final note lengthened to fix the rhythm of repeats.
M: C
L: 1/8
K: Em
|:\
vB>vAuG>uF E2E>G | B2(B>A) (B<e) e>d |\
B>AG>F E>FG>A | B<e g>f e3B ::\
d>eg>a b>ag>b | d>ed>c (B<d) d>e |\
d>eg>a b>ag>b | (B<e) g>f e4 :|

%%sep 1 1 500
%%sep 1 1 500

